icons/map-pin.svg

<svg width="24" height="24" viewBox="0 0 24 24" fill="none" xmlns="http://www.w3.org/2000/svg">
<path fill-rule="evenodd" clip-rule="evenodd" d="M12 4.00024C10.6097 4.00024 9.25276 4.40182 8.10085 5.1513C6.94923 5.9006 6.05574 6.96284 5.52921 8.20061C5.00282 9.43806 4.86552 10.7981 5.13346 12.11C5.40144 13.422 6.06361 14.6308 7.04057 15.5823C7.0406 15.5823 7.04054 15.5822 7.04057 15.5823L11.2843 19.7137C11.4699 19.8943 11.727 20.0002 12.0005 20.0002C12.274 20.0002 12.5311 19.8943 12.7167 19.7137L16.9593 15.5824C16.9593 15.5824 16.9593 15.5824 16.9593 15.5824C17.9363 14.6309 18.5986 13.422 18.8665 12.11C19.1345 10.7981 18.9972 9.43806 18.4708 8.20061C17.9443 6.96284 17.0508 5.9006 15.8991 5.1513C14.7472 4.40182 13.3903 4.00024 12 4.00024ZM7.01012 3.4749C8.48938 2.51243 10.2258 2.00024 12 2.00024C13.7742 2.00024 15.5106 2.51243 16.9899 3.4749C18.4694 4.43756 19.6267 5.80859 20.3112 7.41773C20.9958 9.02717 21.1754 10.7998 20.8261 12.5102C20.4768 14.2204 19.6152 15.7877 18.3547 17.0152L14.1117 21.147C13.5472 21.696 12.7872 22.0002 12.0005 22.0002C11.2138 22.0002 10.4541 21.6964 9.88971 21.1473L5.64544 17.0153C4.3849 15.7878 3.52324 14.2204 3.17392 12.5102C2.82457 10.7998 3.00417 9.02717 3.6888 7.41773C4.37331 5.80859 5.53057 4.43756 7.01012 3.4749ZM12 8.99995C10.8954 8.99995 10 9.89538 10 11C10 12.1045 10.8954 13 12 13C13.1046 13 14 12.1045 14 11C14 9.89538 13.1046 8.99995 12 8.99995ZM8.00001 11C8.00001 8.79081 9.79087 6.99995 12 6.99995C14.2091 6.99995 16 8.79081 16 11C16 13.2091 14.2091 15 12 15C9.79087 15 8.00001 13.2091 8.00001 11Z" fill="black"/>
</svg>

<svg
  width="24"
  height="24"
  viewBox="0 0 24 24"
  xmlns="http://www.w3.org/2000/svg"
>
  <path
    fill-rule="evenodd"
    clip-rule="evenodd"
    d="M12 4c-1.39 0-2.747.402-3.9 1.151a6.839 6.839 0 0 0-2.57 3.05 6.6 6.6 0 0 0-.397 3.909 6.73 6.73 0 0 0 1.908 3.472l4.243 4.132c.186.18.443.286.716.286.274 0 .531-.106.717-.286l4.242-4.132a6.729 6.729 0 0 0 1.907-3.472 6.6 6.6 0 0 0-.395-3.91 6.838 6.838 0 0 0-2.572-3.049A7.154 7.154 0 0 0 12 4.001zm-4.99-.525A9.154 9.154 0 0 1 12 2c1.774 0 3.51.512 4.99 1.475a8.839 8.839 0 0 1 3.321 3.943 8.601 8.601 0 0 1 .515 5.092 8.73 8.73 0 0 1-2.471 4.505l-4.243 4.132A3.03 3.03 0 0 1 12 22a3.027 3.027 0 0 1-2.111-.853l-4.245-4.132a8.73 8.73 0 0 1-2.471-4.505 8.6 8.6 0 0 1 .515-5.092A8.839 8.839 0 0 1 7.01 3.475zM12 9a2 2 0 1 0 0 4 2 2 0 0 0 0-4zm-4 2a4 4 0 1 1 8 0 4 4 0 0 1-8 0z"
  />
</svg>
